!!!COM: Beethoven, Ludwig van
!!!CDT: 1770///-1827///
!!!ODT: 1809///
!!!OTL: String Quartet No. 10 in E-flat Major, Op. 74
!!!OPS: Op. 74
!!!OMV: Mvmt. 4
!!!OMD: Allegretto con Variazioni
!!!PDT: 1810///
!!!PPP: Leipzig and London
!!!ODE: Prince Lobkowitz
**kern	**dynam	**kern	**dynam	**kern	**dynam	**kern	**dynam
*staff4	*staff4	*staff3	*staff3	*staff2	*staff2	*staff1	*staff1
*Icello	*Icello	*Iviola	*Iviola	*Ivioln	*Ivioln	*Ivioln	*Ivioln
*>[A,A,B,B,C,C,D,D,E,E,F,F,G,G,H,H,I,I,K,K,L,L,M,M,N,N1,N,O]	*>[A,A,B,B,C,C,D,D,E,E,F,F,G,G,H,H,I,I,K,K,L,L,M,M,N,N1,N,O]	*>[A,A,B,B,C,C,D,D,E,E,F,F,G,G,H,H,I,I,K,K,L,L,M,M,N,N1,N,O]	*>[A,A,B,B,C,C,D,D,E,E,F,F,G,G,H,H,I,I,K,K,L,L,M,M,N,N1,N,O]	*>[A,A,B,B,C,C,D,D,E,E,F,F,G,G,H,H,I,I,K,K,L,L,M,M,N,N1,N,O]	*>[A,A,B,B,C,C,D,D,E,E,F,F,G,G,H,H,I,I,K,K,L,L,M,M,N,N1,N,O]	*>[A,A,B,B,C,C,D,D,E,E,F,F,G,G,H,H,I,I,K,K,L,L,M,M,N,N1,N,O]	*>[A,A,B,B,C,C,D,D,E,E,F,F,G,G,H,H,I,I,K,K,L,L,M,M,N,N1,N,O]
*>norep[A,B,C,D,E,F,G,H,I,K,L,M,N,O]	*>norep[A,B,C,D,E,F,G,H,I,K,L,M,N,O]	*>norep[A,B,C,D,E,F,G,H,I,K,L,M,N,O]	*>norep[A,B,C,D,E,F,G,H,I,K,L,M,N,O]	*>norep[A,B,C,D,E,F,G,H,I,K,L,M,N,O]	*>norep[A,B,C,D,E,F,G,H,I,K,L,M,N,O]	*>norep[A,B,C,D,E,F,G,H,I,K,L,M,N,O]	*>norep[A,B,C,D,E,F,G,H,I,K,L,M,N,O]
*clefF4	*clefF4	*clefC3	*clefC3	*clefG2	*clefG2	*clefG2	*clefG2
*k[b-e-a-]	*k[b-e-a-]	*k[b-e-a-]	*k[b-e-a-]	*k[b-e-a-]	*k[b-e-a-]	*k[b-e-a-]	*k[b-e-a-]
*E-:	*E-:	*E-:	*E-:	*E-:	*E-:	*E-:	*E-:
*M2/4	*M2/4	*M2/4	*M2/4	*M2/4	*M2/4	*M2/4	*M2/4
*MM120	*MM120	*MM120	*MM120	*MM120	*MM120	*MM120	*MM120
*>A	*>A	*>A	*>A	*>A	*>A	*>A	*>A
[4E-\	p	[4G/	p	[4B-/ [4e-/	p	(8.b-/L	p
.	.	.	.	.	.	16a-/Jk	.
=1	=1	=1	=1	=1	=1	=1	=1
8E-\]	.	8G/]	.	8B-/] 8e-/]	.	8g'/)	.
8r	.	8r	.	8r	.	8r	.
[4AA-/	.	[4A-/	.	[4c/ [4e-/	.	(8.ee-\L	.
.	.	.	.	.	.	16dd\Jk	.
=2	=2	=2	=2	=2	=2	=2	=2
8AA-/]	.	8A-/]	.	8c/] 8e-/]	.	8cc'\)	.
8r	.	8r	.	8r	.	8r	.
[4F'\	.	[4c/	.	4a-/	.	(8.cc\L	.
.	.	.	.	.	.	16b-\Jk	.
=3	=3	=3	=3	=3	=3	=3	=3
8F\]	.	8c/]	.	8a-/	.	8a-'/)	.
8r	.	8r	.	8r	.	8r	.
[4D\	.	[4F/	.	[4B-/	.	(8.a-/L	.
.	.	.	.	.	.	16g/Jk	.
=4	=4	=4	=4	=4	=4	=4	=4
8D\]	.	8F/]	.	8B-/]	.	8f'/)	.
8r	.	8r	.	8r	.	8r	.
[4BB-/	.	[4F/	.	[4d/	.	(8.a-/L	.
.	.	.	.	.	.	16g/Jk	.
=5	=5	=5	=5	=5	=5	=5	=5
8BB-/]	.	8F/]	.	8d/]	.	8f'/)	.
8r	.	8r	.	8r	.	8r	.
[4G\	.	[4B-/	.	[4e-/	.	(8.b-/L	.
.	.	.	.	.	.	16a-/Jk	.
=6	=6	=6	=6	=6	=6	=6	=6
8G\]	.	8B-/]	.	8e-/]	.	8g'/)	.
8r	.	8r	.	8r	.	8r	.
(8.E-\L	f	(8.G\L	f	(8.g/L	f	(8.b-\L	f
16D\Jk)	.	16g\Jk)	.	16f/Jk)	.	16bn\Jk)	.
=7	=7	=7	=7	=7	=7	=7	=7
8C'/L	.	8g'\L	.	8e-'/L	.	8cc'\L	.
8BB-'/	.	8G'\J	.	8d'/	.	8dd'\	.
8AA-'/	.	8c'\L	.	8c'/	.	8ee-'\	.
8AA-'/J	.	8cc\J	.	8c'/J	.	8ff'\J	.
=8	=8	=8	=8	=8	=8	=8	=8
8GG/	.	8bn\	.	8G/ 8g/	.	8gg\	.
8r	.	8r	.	8r	.	8r	.
=!|:	=!|:	=!|:	=!|:	=!|:	=!|:	=!|:	=!|:
*>B	*>B	*>B	*>B	*>B	*>B	*>B	*>B
(4G\	pp	(4g\	pp	(4bn/	pp	(8.gg\L	pp
.	.	.	.	.	.	16ff\Jk	.
=9	=9	=9	=9	=9	=9	=9	=9
4c\	.	4c\	.	4b-/	.	4een\	.
4F\	.	4f\	.	4an/	.	8.ff\L	.
.	.	.	.	.	.	16ee-\Jk	.
=10	=10	=10	=10	=10	=10	=10	=10
(4B-\)	.	4B-/	.	4a-/	.	4dd\	.
[4E-\)	.	4e-\	.	4g/	.	8.ee-\L	.
.	.	.	.	.	.	16dd\Jk	.
=11	=11	=11	=11	=11	=11	=11	=11
4E-\]	.	4G/	.	4g/	.	(4cc#\)	.
4D\	.	4d\	.	[4f#/)	.	[4dd\)	.
=12	=12	=12	=12	=12	=12	=12	=12
(4D\	.	4an\)	.	4f#/]	.	4dd\]	.
8.F\L	.	(8.a-\L	.	(8.B-/ 8.fn/L	.	(8.dd\L	.
16G\Jk	.	16g\Jk	.	16e-/Jk	.	16cc\Jk	.
=13	=13	=13	=13	=13	=13	=13	=13
8A-'\)	.	8f'\)	.	8B-'/) 8d'/	.	8b-'\)	.
8r	.	8r	.	8r	.	8r	.
(8.F\L	.	8.B-/L	.	(8.f/L	.	(8.dd\L	.
16E-\Jk	.	16B-/Jk	.	16g/Jk	.	16ee-\Jk	.
=14	=14	=14	=14	=14	=14	=14	=14
8D'\)	.	8B-/	.	8a-/)	.	8ff'\)	.
8r	.	8r	.	8r	.	8r	.
(8.d\L	.	(8.f\L	.	(8.dd\L	.	(8.ff\L	.
16e-\Jk	.	16g\Jk	.	16cc\Jk	.	16ee-\Jk	.
=15	=15	=15	=15	=15	=15	=15	=15
8f'\)	.	8a-'\)	.	8b-'\)	.	8dd'\)	.
8r	.	8r	.	8r	.	8r	.
(8.d\L	.	(8.f\L	.	(8.dd\L	.	(8.ff\L	.
16c\Jk	.	16e-\Jk	.	16ee-\Jk	.	16gg\Jk	.
=16	=16	=16	=16	=16	=16	=16	=16
8B-'\)	.	8d'\)	.	8ff'\)	.	8aa-'\)	.
8r	.	8r	.	8r	.	8r	.
8.C/L	f	8.e-\L	f	(8.b-/L	f	(8.bb-\L	f
(16D/Jk	.	16f\Jk	.	16a-/Jk	.	16aa-\Jk	.
=17	=17	=17	=17	=17	=17	=17	=17
8E-'\)	.	8B-'/	.	8g'/)	.	8gg'\)	.
8r	.	8r	.	8r	.	8r	.
(8.FF/L	.	(8.A-/L	.	(8.ee-\L	.	(8.eee-\L	.
16GG/Jk	.	16B-/Jk	.	16dd\Jk	.	16ddd\Jk	.
=18	=18	=18	=18	=18	=18	=18	=18
8AA-'/)	.	8E-'/)	.	8cc'\)	.	8ccc'\)	.
8r	.	8r	.	8r	.	8r	.
(8.DD/L	.	(8.F/L	.	(8.cc\L	.	(8.ccc\L	.
16EEn/Jk)	.	16G/Jk)	.	16b-\Jk)	.	16bb-\Jk)	.
=19	=19	=19	=19	=19	=19	=19	=19
8FF'/L	.	8A-'/L	.	8a-'\L	.	8aa-'\L	.
8GG'/	.	8G'/	.	8b-'\	.	8bb-'\	.
8AA-'/	.	8F'/	.	8cc'\	.	8ccc'\	.
8BB-'/J	.	8A-'/J	.	8f'\ 8dd'\J	.	8ddd'\J	.
=20	=20	=20	=20	=20	=20	=20	=20
8EE-/	.	8G/	.	8g\ 8ee-\	.	8eee-\	.
8r	.	8r	.	8r	.	8r	.
=!|:	=!|:	=!|:	=!|:	=!|:	=!|:	=!|:	=!|:
*>C	*>C	*>C	*>C	*>C	*>C	*>C	*>C
8B-'\L	.	4r	.	4r	.	4r	.
8G'\J	.	.	.	.	.	.	.
=21	=21	=21	=21	=21	=21	=21	=21
8E-'/L	.	8G'\L	.	2r	.	4r	.
8BB-'/	.	8B-'\	.	.	.	.	.
8GG'/	f	8e-'\	.	.	.	8eee-'\L	.
8EE-'/J	.	8g'\J	.	.	.	8bb-'\J	.
=22	=22	=22	=22	=22	=22	=22	=22
8AA-/	.	8c'\	f	8c'/L	.	8ccc'\L	.
8r	.	8r	.	8e-'/	.	8aa-'\	f
8c'\L	.	4r	.	8a-'/	.	8ee-'\	.
8B-'\J	.	.	.	8cc'/J	f	8cc'\J	.
=23	=23	=23	=23	=23	=23	=23	=23
8A-'\L	.	8F'/L	.	2r	.	8c'/	.
8G'\	.	8G'/	.	.	.	8r	.
8F'\	.	8A-'/	.	.	.	8aa-'\L	.
8E-'\J	.	8An'/J	.	.	.	8gg'\J	.
=24	=24	=24	=24	=24	=24	=24	=24
8D'\	.	8F/	.	8B-'/L	.	8ff'\L	.
8r	.	8r	.	8c'/	.	8ee-'\	.
8f'\L	.	4r	.	8d'/	.	8dd'\	.
8e-'\J	.	.	.	8e-'/J	.	8cc\J	.
=25	=25	=25	=25	=25	=25	=25	=25
(8d'\L	.	8d'\L	.	8f/	.	4b-'\	.
8c'\)	.	8e-'\	.	8r	.	.	.
8B-'\	.	8f'\	.	4r	.	8ddd'\L	.
8A-'\J	.	8f#'\J	.	.	.	8ccc'\J	.
=26	=26	=26	=26	=26	=26	=26	=26
8G'\L	.	8g'\L	.	8B-'/L	.	8bb-'\L	.
8F'\	.	8a-'\	.	8f'/	.	8aa-'\	.
8E-'\	.	8b-'\	.	8g'/	.	8gg'\	.
8D'\J	.	8fn'\J	.	8g'/J	.	8bbn'\J	.
=27	=27	=27	=27	=27	=27	=27	=27
8C'/L	.	8e-'\L	.	8g'\L	.	8ccc'\L	.
8BB-'/	.	8c'\	.	8ee-'\	.	8ccc'\	.
8AAn'/	.	8c'\	.	8cc'\	.	8eee-'\	.
8AA-'/J	.	8c'\J	.	8cc'\J	.	8ff#'\J	.
=28	=28	=28	=28	=28	=28	=28	=28
8GG/	.	8d\	.	8bn'\	.	8gg'\	.
8r	.	8r	.	8r	.	8r	.
=:|!|:	=:|!|:	=:|!|:	=:|!|:	=:|!|:	=:|!|:	=:|!|:	=:|!|:
*>D	*>D	*>D	*>D	*>D	*>D	*>D	*>D
8g'\L	.	4r	.	8g'/L	.	4r	.
8f'\J	.	.	.	8bn'/J	.	.	.
=29	=29	=29	=29	=29	=29	=29	=29
8en'\L	.	8c'\L	.	4r	.	8ccc'\L	.
8c'\	.	8en'\J	.	.	.	8bb-'\	.
8f'\	.	4r	.	(8f'/L	.	8aan'\	.
8e-'\J	.	.	.	8an'/J)	.	8ff'\J	.
=30	=30	=30	=30	=30	=30	=30	=30
8d'\L	.	8B-'\L	.	4r	.	8bb-'\L	.
8B-'\	.	8d\J	.	.	.	8aa-'\	.
8e-'\	.	4r	.	8e-'/L	.	8gg'\	.
8d'\J	.	.	.	8b-'/J	.	8g'\J	.
=31	=31	=31	=31	=31	=31	=31	=31
8c#'\L	.	8r	.	8b-'\L	.	8gg'\L	.
8C#'\	.	8G'/L	.	8gg'\	.	8bb-'\	.
8D'\	.	8d'/	.	8ff'\	.	8aan'\	.
8d'\J	.	8D'/J	.	8d'\J	.	8dd'\J	.
=32	=32	=32	=32	=32	=32	=32	=32
8D'\L	.	8D/	.	8d/	.	8dd\	.
8d'\	.	8r	.	8r	.	8r	.
8D'\	.	4r	.	4r	.	4r	.
8C'\J	.	.	.	.	.	.	.
=33	=33	=33	=33	=33	=33	=33	=33
8BB-'/L	.	8d'\L	.	4r	.	4r	.
8C'/	.	8c'\	.	.	.	.	.
8D'/	.	8B-'\	.	8fn'/L	.	8dd'\L	.
8E-'/J	.	8c'\J	.	8e-'/J	.	8cc'\J	.
=34	=34	=34	=34	=34	=34	=34	=34
8F'\	.	8d'\	.	8d'/L	.	8b-'\L	.
8r	.	8r	.	8e-'/	.	8cc'\	.
8d'\L	.	8f'\L	.	8f'/	.	8dd'\	.
8c'\J	.	8e-'\J	.	8g'/J	.	8ee-'\J	.
=35	=35	=35	=35	=35	=35	=35	=35
8B-'\L	.	8d'\L	.	8a-'/	.	8ff'\	.
8c'\	.	8e-'\	.	8r	.	8r	.
8d'\	.	8f'\	.	8dd'\L	.	8ff'\L	.
8e-'\J	.	8g'\J	.	8cc'\J	.	8ee-'\J	.
=36	=36	=36	=36	=36	=36	=36	=36
8f'\	.	8a-'\	.	8b-'\L	.	8dd'\L	.
8r	.	8r	.	8cc'\	.	8ee-'\	.
8B-'\L	.	8b-'\L	.	8dd'\	.	8ff'\	.
8A-'\J	.	8d'\J	.	8b-'\J	.	8ff'\J	.
=37	=37	=37	=37	=37	=37	=37	=37
8G'\L	.	8e-'\	.	8b-'/L	.	8gg'\L	.
8E-'\	.	8r	.	8g'/	.	8gg'\	.
8e-'\	.	(8b-'\L	.	8f'/	.	8aa-'\	.
8d-'\J	.	8e-'\J)	.	8g'/J	.	8bb-'\J	.
=38	=38	=38	=38	=38	=38	=38	=38
8c'\L	.	8e-'\L	.	8a-'/L	.	8ccc'\L	.
8B-'\	.	8en'\	.	8g'/	.	8ccc'\	.
8A-'\	.	8f'\	.	8a-/	.	8ccc'\	.
8G'\J	.	8g'\J	.	8b-'/J	.	8bb-'\J	.
=39	=39	=39	=39	=39	=39	=39	=39
8F'\L	.	8a-'\L	.	8b-'/L	.	8aa-'\L	.
8E-'\	.	8B-'\	.	8g'/	.	8gg'\	.
8Dn'\	.	8B-'\	.	8a-'/	.	8ff'\	.
8BB-'\J	.	8b-'\J	.	8ff'/J	.	8ddd'\J	.
=40	=40	=40	=40	=40	=40	=40	=40
8E-/L	.	8b-'\	.	8gg'\	.	8eee-'\	.
8EE-/J	.	8r	.	8r	.	8r	.
=:|!|:	=:|!|:	=:|!|:	=:|!|:	=:|!|:	=:|!|:	=:|!|:	=:|!|:
*>E	*>E	*>E	*>E	*>E	*>E	*>E	*>E
4r	.	(12B-/L	.	4r	.	4r	.
.	.	12c/	.	.	.	.	.
.	.	12A-/J	.	.	.	.	.
=41	=41	=41	=41	=41	=41	=41	=41
2E-\	.	12G/L	.	2g/	.	2e-/ 2b-/	.
.	.	12B-/	.	.	.	.	.
.	.	12A-/J	.	.	.	.	.
.	.	12G/L	.	.	.	.	.
.	.	12e-/	.	.	.	.	.
.	.	12d/J)	.	.	.	.	.
=42	=42	=42	=42	=42	=42	=42	=42
2A-\	p	(12d/L	.	2e-/	p	2cc\	p
.	.	12Bn/	.	.	.	.	.
.	.	12c/J	.	.	.	.	.
.	.	12c/L	.	.	.	.	.
.	.	12d/	.	.	.	.	.
.	.	12B-/J)	.	.	.	.	.
=43	=43	=43	=43	=43	=43	=43	=43
2F\	.	(12B-/L	.	2a-/	.	2cc\	.
.	.	12G/	.	.	.	.	.
.	.	12A-/J	.	.	.	.	.
.	.	12A-/L	.	.	.	.	.
.	.	12B-/	.	.	.	.	.
.	.	12G/J)	.	.	.	.	.
=44	=44	=44	=44	=44	=44	=44	=44
2D\	.	(12G/L	.	2B-/ 2f/	.	2b-\	.
.	.	12En/	.	.	.	.	.
.	.	12F/J	.	.	.	.	.
.	.	12A-/L	.	.	.	.	.
.	.	12B-/	.	.	.	.	.
.	.	12G/J)	.	.	.	.	.
=45	=45	=45	=45	=45	=45	=45	=45
2D\	.	(12G/L	.	2B-/ 2f/	.	2b-\	.
.	.	12En/	.	.	.	.	.
.	.	12F/J	.	.	.	.	.
.	.	12B-/L	.	.	.	.	.
.	.	12c/	.	.	.	.	.
.	.	12A-/J)	.	.	.	.	.
=46	=46	=46	=46	=46	=46	=46	=46
2E-\	.	(12A-/L	.	2B-/	.	2b-\	.
.	.	12F#/	.	.	.	.	.
.	.	12G/J)	.	.	.	.	.
.	.	(12G\L	.	.	.	.	.
.	.	12g\	.	.	.	.	.
.	.	12fn\J)	.	.	.	.	.
=47	=47	=47	=47	=47	=47	=47	=47
2A-\	.	(12f\L	.	2c/	.	2cc\	.
.	.	12e-\	.	.	.	.	.
.	.	12d\J	.	.	.	.	.
.	.	12d\L	.	.	.	.	.
.	.	12e-\	.	.	.	.	.
.	.	12c\J)	.	.	.	.	.
=48	=48	=48	=48	=48	=48	=48	=48
8G\	.	8g\	.	8d/	.	8bn\	.
8r	.	8r	.	8r	.	8r	.
=:|!|:	=:|!|:	=:|!|:	=:|!|:	=:|!|:	=:|!|:	=:|!|:	=:|!|:
*>F	*>F	*>F	*>F	*>F	*>F	*>F	*>F
(4GG/	.	(12bn\L	p	4r	.	(12dd\L	p
.	.	12an\	.	.	.	12cc\	.
.	.	12b\J	.	.	.	12dd\J	.
=49	=49	=49	=49	=49	=49	=49	=49
4GG-/	.	4cc\)	.	(12e-/L	.	4ee-\	.
.	.	.	.	12f/	.	.	.
.	.	.	.	12e-/J)	.	.	.
4FF/	.	(12an\L	.	(12e-/L	.	12cc\L	.
.	.	12g\	.	12f/	.	12b-\	.
.	.	12a\J	.	12e-/J)	.	12cc\J	.
=50	=50	=50	=50	=50	=50	=50	=50
4BB-/	.	12b-\L	.	(4d/	.	(4dd\)	.
.	.	12f\	.	.	.	.	.
.	.	12a-\J	.	.	.	.	.
[4E-\)	.	12g\L	.	[4G/)	.	[4gg\)	.
.	.	12f\	.	.	.	.	.
.	.	12e-\J	.	.	.	.	.
=51	=51	=51	=51	=51	=51	=51	=51
4E-\]	.	12d\L	.	(4G/]	.	(8gg\L]	.
.	.	12c#\	.	.	.	.	.
.	.	.	.	.	.	8cc#\J	.
.	.	12g\J	.	.	.	.	.
[4D\	.	12f#\L	.	[4d/)	.	[4dd\)	.
.	.	12an\	.	.	.	.	.
.	.	12f#\J	.	.	.	.	.
=52	=52	=52	=52	=52	=52	=52	=52
2D\]	.	12d/L	.	2d/]	.	2dd\]	.
.	.	12An/	.	.	.	.	.
.	.	(12F#/J)	.	.	.	.	.
.	.	12D/L	.	.	.	.	.
.	.	12d/	.	.	.	.	.
.	.	12c/J)	.	.	.	.	.
=53	=53	=53	=53	=53	=53	=53	=53
2BB-/	.	(12c/L	.	2B-/ 2a-/	.	2f/ 2dd/	.
.	.	12An/	.	.	.	.	.
.	.	12B-/J	.	.	.	.	.
.	.	12d\L	.	.	.	.	.
.	.	12e-\	.	.	.	.	.
.	.	12en\J	.	.	.	.	.
=54	=54	=54	=54	=54	=54	=54	=54
2BB-/	.	12g\L	.	2B-/ 2a-/	.	2f/ 2dd/	.
.	.	12en\	.	.	.	.	.
.	.	12f\J)	.	.	.	.	.
.	.	(12f\L	.	.	.	.	.
.	.	12g\	.	.	.	.	.
.	.	12e-\J)	.	.	.	.	.
=55	=55	=55	=55	=55	=55	=55	=55
2BB-/	.	(12e-\L	.	2A-/ 2f/	.	2dd\	.
.	.	12c\	.	.	.	.	.
.	.	12d\J	.	.	.	.	.
.	.	12f\L	.	.	.	.	.
.	.	12f#\	.	.	.	.	.
.	.	12g\J	.	.	.	.	.
=56	=56	=56	=56	=56	=56	=56	=56
2BB-/	.	12b-\L	.	2A-/ 2f/	.	2dd\	.
.	.	12g\	.	.	.	.	.
.	.	(12a-\J)	.	.	.	.	.
.	.	12b-\L	.	.	.	.	.
.	.	12cc\	.	.	.	.	.
.	.	12a-\J	.	.	.	.	.
=57	=57	=57	=57	=57	=57	=57	=57
2E-\	.	12g\L	.	2G/ 2e-/	.	(4ee-\	.
.	.	12b-\	.	.	.	.	.
.	.	12a-\J	.	.	.	.	.
.	.	12g\L	.	.	.	4b-\)	.
.	.	12ee-\	.	.	.	.	.
.	.	12dd\J)	.	.	.	.	.
=58	=58	=58	=58	=58	=58	=58	=58
2AA-/	.	(12dd\L	.	2c/	.	2cc\	.
.	.	12bn\	.	.	.	.	.
.	.	12cc\J	.	.	.	.	.
.	.	12cc\L	.	.	.	.	.
.	.	12dd\	.	.	.	.	.
.	.	12b-\J)	.	.	.	.	.
=59	=59	=59	=59	=59	=59	=59	=59
2BB-/	.	(12a-\L	.	2B-/ 2f/	.	2dd\	.
.	.	12b-\	.	.	.	.	.
.	.	12g\J	.	.	.	.	.
.	.	12fn\L	.	.	.	.	.
.	.	12cc\	.	.	.	.	.
.	.	12b-\J)	.	.	.	.	.
=60	=60	=60	=60	=60	=60	=60	=60
8E-\	.	8e-\	.	8B-/ 8g/	.	8ee-\	.
8r	.	8r	.	8r	.	8r	.
=:|!|:	=:|!|:	=:|!|:	=:|!|:	=:|!|:	=:|!|:	=:|!|:	=:|!|:
*>G	*>G	*>G	*>G	*>G	*>G	*>G	*>G
16G\LL	f	8r	.	16b-\LL	f	8r	.
16A-\	.	.	.	16cc\	.	.	.
16G\	.	8b-\	f	16b-\	.	8bb-\	f
16F\JJ	.	.	.	16a-\JJ	.	.	.
=61	=61	=61	=61	=61	=61	=61	=61
16E-\LL	.	8r	.	16g/LL	.	8r	.
16F\	.	.	.	16a-/	.	.	.
16G\	.	8ee-\	.	16b-/	.	8eee-\	.
16A-\JJ	.	.	.	16cc/JJ	.	.	.
16B-\LL	.	8r	.	16dd\LL	.	8r	.
16c\	.	.	.	16ee-\	.	.	.
16d\	.	8e-\	.	16ff\	.	8eee-\	.
16c\JJ	.	.	.	16ee-\JJ	.	.	.
=62	=62	=62	=62	=62	=62	=62	=62
16B-\LL	.	8r	.	16dd\LL	.	8r	.
16A-\	.	.	.	16cc\	.	.	.
16G\	.	8cc\	.	16bn\	.	8ccc\	.
16A-\JJ	.	.	.	16cc\JJ	.	.	.
16A-\LL	.	8r	.	16cc\LL	.	8r	.
16B-\	.	.	.	16dd\	.	.	.
16A-\	.	8c\	.	16cc\	.	8ccc\	.
16G\JJ	.	.	.	16b-\JJ	.	.	.
=63	=63	=63	=63	=63	=63	=63	=63
16G\LL	.	8r	.	16b-/LL	.	8r	.
16F\	.	.	.	16a-/	.	.	.
16En\	.	8a-\	.	16g/	.	8aa-\	.
16F\JJ	.	.	.	16a-/JJ	.	.	.
16F\LL	.	8r	.	16a-/LL	.	8r	.
16G\	.	.	.	16b-/	.	.	.
16F\	.	8A-/	.	16a-/	.	8aa-\	.
16E-\JJ	.	.	.	16g/JJ	.	.	.
=64	=64	=64	=64	=64	=64	=64	=64
16E-\LL	.	8r	.	16g/LL	.	8r	.
16D\	.	.	.	16f/	.	.	.
16C#\	.	8f\	.	16en/	.	8ff\	.
16D\JJ	.	.	.	16f/JJ	.	.	.
16F\LL	.	8r	.	16a-/LL	.	8r	.
16G\	.	.	.	16b-/	.	.	.
16F\	.	8f\	.	16a-/	.	8ff\	.
16E-\JJ	.	.	.	16g/JJ	.	.	.
=65	=65	=65	=65	=65	=65	=65	=65
16E-\LL	.	8r	.	16g/LL	.	8r	.
16D\	.	.	.	16f/	.	.	.
16C#\	.	8b-\	.	16en/	.	8bb-\	.
16D\JJ	.	.	.	16f/JJ	.	.	.
16G\LL	.	8r	.	16b-/LL	.	8r	.
16A-\	.	.	.	16cc/	.	.	.
16G\	.	8B-/	.	16b-/	.	8bb-\	.
16F\JJ	.	.	.	16a-/JJ	.	.	.
=66	=66	=66	=66	=66	=66	=66	=66
16F\LL	.	8r	.	16a-/LL	.	8r	.
16E-\	.	.	.	16g/	.	.	.
16D\	.	8ee-\	.	16f#/	.	8eee-\	.
16E-\JJ	.	.	.	16g/JJ	.	.	.
16E-\LL	.	8r	.	16g\LL	.	8r	.
16G\	.	.	.	16b-\	.	.	.
16cn\	.	8e-\	.	16ee-\	.	8eee-\	.
16B-\JJ	.	.	.	16dd\JJ	.	.	.
=67	=67	=67	=67	=67	=67	=67	=67
16A-\LL	.	8r	.	16cc/LL	.	8r	.
16G\	.	.	.	16b-/	.	.	.
16F\	.	8cc\	.	16a-/	.	8eee-\	.
16E-\JJ	.	.	.	16g/JJ	.	.	.
16D/LL	.	8r	.	16fn/LL	.	8r	.
16C/	.	.	.	16e-/	.	.	.
16BB-/	.	8c\	.	16d/	.	8fff\	.
16AA-/JJ	.	.	.	16c/JJ	.	.	.
=68	=68	=68	=68	=68	=68	=68	=68
8GG/	.	8r	.	8Bn/	.	8r	.
8r	.	8g\	.	8r	.	8ggg\	.
=:|!|:	=:|!|:	=:|!|:	=:|!|:	=:|!|:	=:|!|:	=:|!|:	=:|!|:
*>H	*>H	*>H	*>H	*>H	*>H	*>H	*>H
4r	.	4r	.	16g/LL	f	4r	.
.	.	.	.	16a-/	.	.	.
.	.	.	.	16g/	.	.	.
.	.	.	.	16f/JJ	.	.	.
=69	=69	=69	=69	=69	=69	=69	=69
16c\LL	f	8r	.	16f/LL	.	8r	.
16d\	.	.	.	16en/	.	.	.
16c\	.	8c\	.	16d/	.	8gg\	.
16B-\JJ	.	.	.	16e/JJ	.	.	.
16B-\LL	.	8r	.	16f/LL	.	8r	.
16An\	.	.	.	16g/	.	.	.
16G\	.	8F/ 8An/	.	16f/	.	8ccc\	.
16A\JJ	.	.	.	16e-/JJ	.	.	.
=70	=70	=70	=70	=70	=70	=70	=70
16B-\LL	.	8r	.	16e-/LL	.	8r	.
16c\	.	.	.	16d/	.	.	.
16B-\	.	8B-/	.	16c/	.	8dd\ 8ff\	.
16A-\JJ	.	.	.	16d/JJ	.	.	.
16G\LL	.	8r	.	16e-/LL	.	8r	.
16A-\	.	.	.	16f/	.	.	.
16G\	.	8E-/	.	16e-/	.	8gg\	.
16F\JJ	.	.	.	16d/JJ	.	.	.
=71	=71	=71	=71	=71	=71	=71	=71
16E-/LL	.	8r	.	16c#/LL	.	8r	.
16EE-/	.	.	.	16g/	.	.	.
16EE-/	.	8cc#\	.	16G/	.	8ccc#\	.
16EE-/JJ	.	.	.	16g/JJ	.	.	.
8DD/	.	16r	.	8f#/	.	16r	.
.	.	16dd\LL	.	.	.	16ddd\LL	.
8r	.	16d\	.	8r	.	16dd\	.
.	.	16dd\JJ	.	.	.	16ddd\JJ	.
=72	=72	=72	=72	=72	=72	=72	=72
16r	.	8d\	.	16r	.	8dd\	.
16d\LL	.	.	.	16dd/LL	.	.	.
16D\	.	8r	.	16d/	.	8r	.
16d\JJ	.	.	.	16dd/JJ	.	.	.
8D\	p	4r	.	16d/LL	p	4r	.
.	.	.	.	16e-/	.	.	.
8r	.	.	.	16d/	.	.	.
.	.	.	.	16c/JJ	.	.	.
=73	=73	=73	=73	=73	=73	=73	=73
2r	.	4r	.	16c/LL	.	4r	.
.	.	.	.	16B-/	.	.	.
.	.	.	.	16An/	.	.	.
.	.	.	.	16B-/JJ	p	.	.
.	.	16B-/LL	p	4r	.	16b-\LL	.
.	.	16An/	.	.	.	16ccn\	.
.	.	16B-/	.	.	.	16dd\	.
.	.	16c/JJ	.	.	.	16ee-\JJ	.
=74	=74	=74	=74	=74	=74	=74	=74
4r	.	16c\LL	.	4r	.	16ee-\LL	.
.	.	16d\	.	.	.	16ff\	.
.	.	16e-\	.	.	.	16gg\	.
.	.	16d\JJ	.	.	.	16ff\JJ	.
16D\LL	p	4r	.	16fn/LL	p	4r	.
16E-\	.	.	.	16g/	.	.	.
16D\	.	.	.	16f/	.	.	.
16C\JJ	.	.	.	16e-/JJ	.	.	.
=75	=75	=75	=75	=75	=75	=75	=75
16C/LL	.	4r	.	16e-/LL	.	4r	.
16BB-/	.	.	.	16d/	.	.	.
16AAn/	.	.	.	16c#/	.	.	.
16BB-/JJ	.	.	.	16d/JJ	.	.	.
4r	.	16B-\LL	p	4r	.	16dd\LL	p
.	.	16c\	.	.	.	16ee-\	.
.	.	16d\	.	.	.	16ff\	.
.	.	16e-\JJ	.	.	.	16gg\JJ	.
=76	=76	=76	=76	=76	=76	=76	=76
4r	.	16en\LL	.	4r	.	16gg\LL	.
.	.	16f\	.	.	.	16aa-\	.
.	.	16g\	.	.	.	16bb-\	.
.	.	16f\JJ	.	.	.	16aa-\JJ	.
16G\LL	f	8r	.	16b-\LL	f	8r	.
16A-\	.	.	.	16cc\	.	.	.
16G\	.	8b-\	f	16b-\	.	8bb-\	f
16F\JJ	.	.	.	16a-\JJ	.	.	.
=77	=77	=77	=77	=77	=77	=77	=77
16E-\LL	.	8r	.	16g\LL	.	8r	.
16G\	.	.	.	16b-\	.	.	.
16A-\	.	8ee-\	.	16cc\	.	8eee-\	.
16B-\JJ	.	.	.	16dd\JJ	.	.	.
16c\LL	.	8r	.	16ee-\LL	.	8r	.
16d\	.	.	.	16ff\	.	.	.
16c\	.	8e-\	.	16ee-\	.	8eee-\	.
16B-\JJ	.	.	.	16dd\JJ	.	.	.
=78	=78	=78	=78	=78	=78	=78	=78
16B-\LL	.	8r	.	16dd\LL	.	8r	.
16A-\	.	.	.	16cc\	.	.	.
16G\	.	8cc\	.	16bn\	.	8ccc\	.
16A-\JJ	.	.	.	16cc\JJ	.	.	.
16A-\LL	.	8r	.	16cc\LL	.	8r	.
16B-\	.	.	.	16dd\	.	.	.
16A-\	.	8c\	.	16cc\	.	8ccc\	.
16G\JJ	.	.	.	16b-\JJ	.	.	.
=79	=79	=79	=79	=79	=79	=79	=79
16F\LL	.	8r	.	16a-/LL	.	8r	.
16E-\	.	.	.	16g/	.	.	.
16D\	.	8a-\	.	16f/	.	8ccc\	.
16C\JJ	.	.	.	16e-/JJ	.	.	.
16BB-/LL	.	8r	.	16d/LL	.	8r	.
16AA-/	.	.	.	16c/	.	.	.
16GG/	.	8f\ 8b-\	.	16B-/	.	8ddd\	.
16FF/JJ	.	.	.	16A-/JJ	.	.	.
=80	=80	=80	=80	=80	=80	=80	=80
8EE-/	.	8r	.	8G/	.	8r	.
8r	.	8g\ 8b-\	.	8r	.	8eee-\	.
=:|!|:	=:|!|:	=:|!|:	=:|!|:	=:|!|:	=:|!|:	=:|!|:	=:|!|:
*>I	*>I	*>I	*>I	*>I	*>I	*>I	*>I
8EE-/L	.	4r	.	4r	.	(4b-\	.
(8DD/J	.	.	.	.	.	.	.
=81	=81	=81	=81	=81	=81	=81	=81
8EE-/L	.	2r	.	2r	.	4g/	p
8FF/	p	.	.	.	.	.	.
8GG/	.	.	.	.	.	4ee-\	.
8DD/J	.	.	.	.	.	.	.
=82	=82	=82	=82	=82	=82	=82	=82
2AA-/)	.	(8A-/L	.	(8c/L	.	4dd\	.
.	.	8B-/	.	8d/	.	.	.
.	.	8c/	.	8e-/	.	4cc\	.
.	.	8A-/J)	p	8c/J)	p	.	.
=83	=83	=83	=83	=83	=83	=83	=83
(8FF/L	.	2r	.	2r	.	4b-\	.
8GG/	.	.	.	.	.	.	.
8AA-/	.	.	.	.	.	4a-/	.
8FF/J	.	.	.	.	.	.	.
=84	=84	=84	=84	=84	=84	=84	=84
2BB-/)	.	(8D/L	.	(8B-/L	.	4g/)	.
.	.	8E-/	.	8c/	.	.	.
.	.	8F/	.	8d/	.	4f/	.
.	.	8D/J)	.	[8B-/J)	.	.	.
=85	=85	=85	=85	=85	=85	=85	=85
8BB-\L	.	(8D/L	.	(8B-/L]	.	(4f/	.
8C\	.	8E-/	.	8An/	.	.	.
8D\	.	8F/	.	8B-/	.	4b-/	.
8BB-\J	.	8D/J	.	8A-/J)	.	.	.
=86	=86	=86	=86	=86	=86	=86	=86
8E-\L	.	8G/L	.	4r	.	4a-/	.
8F\	.	8A-/	.	.	.	.	.
8G\	.	8B-/	.	(8B-/L	.	[4g/	.
8E-\J	.	8G/J	.	8c/J	.	.	.
=87	=87	=87	=87	=87	=87	=87	=87
2D/	.	8An/L	.	2d/)	.	4g/]	.
.	.	8B-/	.	.	.	.	.
.	.	8c/	.	.	.	4f#/	.
.	.	8A/J)	.	.	.	.	.
=88	=88	=88	=88	=88	=88	=88	=88
4GG/	.	4Bn/	.	4G/	.	4g/)	.
=:|!|:	=:|!|:	=:|!|:	=:|!|:	=:|!|:	=:|!|:	=:|!|:	=:|!|:
*>K	*>K	*>K	*>K	*>K	*>K	*>K	*>K
4r	.	[4g\	.	4r	.	(4gg\	.
=89	=89	=89	=89	=89	=89	=89	=89
(8CC/L	.	(4g\]	.	(4b-/	.	4een\	.
8GG/	.	.	.	.	.	.	.
8AA-/	.	4f\)	.	[4a-/)	.	4ff\	p
8CC/J)	.	.	.	.	.	.	.
=90	=90	=90	=90	=90	=90	=90	=90
2r	.	(8C/L	.	(4a-/]	.	4f/ 4dd/	.
.	.	8Bn/	.	.	.	.	.
.	.	8c/	.	4g/)	.	4e-/ 4ee-/	.
.	.	8C/J)	.	.	.	.	.
=91	=91	=91	=91	=91	=91	=91	=91
(8BBn\L	.	2r	.	(4en/	.	(4cc#\)	.
8G\	.	.	.	.	.	.	.
8A-\	.	.	.	[4f/)	.	[4dd\)	.
8BB\J)	.	.	.	.	.	.	.
=92	=92	=92	=92	=92	=92	=92	=92
2r	.	(8Bn\L	.	4f/]	.	4dd\]	.
.	.	8g\	.	.	.	.	.
.	.	8a-\	.	[4f/	.	(4dd\	.
.	.	8B\J)	.	.	.	.	.
=93	=93	=93	=93	=93	=93	=93	=93
(8BB-\L	.	2r	.	8f/L]	.	4dd\	.
8F\	.	.	.	8a-/	.	.	.
8G\	.	.	.	8e-/	.	4ee-\	.
8BB-\J)	.	.	.	8g/J	.	.	.
=94	=94	=94	=94	=94	=94	=94	=94
4r	.	(8B-\L	.	8d/L	.	4ff\)	.
.	.	8g\	.	8e-/	.	.	.
[4BB-/	.	8a-\	.	8d/	.	[4f/	.
.	.	8B-\J)	.	8b-/J	.	.	.
=95	=95	=95	=95	=95	=95	=95	=95
8BB-/L]	.	(4A-/	.	4b-/	.	(4f/]	.
(8D/	.	.	.	.	.	.	.
8E-/	.	4G/	.	[4B-/	.	4g/	.
8BB-/J	.	.	.	.	.	.	.
=96	=96	=96	=96	=96	=96	=96	=96
8F/L	.	4F/	.	4B-/]	.	4a-/	>
8BB-/	>	.	.	.	.	.	.
8D/	.	[4B-/)	>	(4f/	>	4b-/)	.
8BB-/J)	.	.	.	.	.	.	.
=97	=97	=97	=97	=97	=97	=97	=97
(8EE-/L	.	8B-/L]	.	8g/L	.	(4g/	.
8FF/	.	(8A-/	.	8f/	.	.	.
8GG/	.	8G/	.	8e-/)	.	4ee-\	.
8EE-/J)	.	8B-/J	.	8g/J	.	.	.
=98	=98	=98	=98	=98	=98	=98	=98
2AA-/	.	8A-/L	.	(8c/L	.	4dd\	.
.	.	8B-/	.	8d/	.	.	.
.	.	8c/	.	8e-/	.	[4cc\	.
.	.	8A-/J)	.	8c/J)	.	.	.
=99	=99	=99	=99	=99	=99	=99	=99
(8FF/L	.	(8A-/L	.	(8d/L	.	4cc\]	.
8GG/	.	8G/	.	8e-/	.	.	.
8AA-/	.	8F/	.	8d/	.	4b-\	.
8BB-/J)	.	8D/J)	.	8B-/) 8f/J	.	.	.
=100	=100	=100	=100	=100	=100	=100	=100
4EE-/	.	4E-/	.	4B-/ 4e-/	.	4g/)	.
=:|!|:	=:|!|:	=:|!|:	=:|!|:	=:|!|:	=:|!|:	=:|!|:	=:|!|:
*>L	*>L	*>L	*>L	*>L	*>L	*>L	*>L
8r	.	8r	.	8r	.	[4b-/	.
8GG'/	.	8E-'/	.	8B-'/	.	.	.
=101	=101	=101	=101	=101	=101	=101	=101
8EE-'/L	f	8E-'/L	f	8G'/L	f	16b-'/LL]	f
.	.	.	.	.	.	(16e-/	.
8GG'/J	.	8E-'/J	.	8B-'/J	.	16g/	.
.	.	.	.	.	.	16b-/JJ)	.
8r	.	8r	.	8r	.	[4ee-\	.
8C'/	.	8E-'/	.	8e-'/	.	.	.
=102	=102	=102	=102	=102	=102	=102	=102
8AA-'/L	.	8E-'/L	.	8c'/L	.	(16ee-\LL]	.
.	.	.	.	.	.	16cc\	.
8C'/J	.	8E-'/J	.	8e-'/J	.	16ee-\	.
.	.	.	.	.	.	16aa-\JJ)	.
8r	.	8r	.	8r	.	[4ccc\	.
8A-'\	.	8c'\	.	8cc'\	.	.	.
=103	=103	=103	=103	=103	=103	=103	=103
8F'\L	.	8A-'/L	.	8a-'\L	.	16ccc'\LL]	.
.	.	.	.	.	.	(16A-/	.
8A-'\J	.	8c'/J	.	8cc'\J	.	16c/	.
.	.	.	.	.	.	16f/JJ)	.
8r	.	8r	.	8r	.	[4a-/	.
8F'\	.	8c'/	.	8a-'/	.	.	.
=104	=104	=104	=104	=104	=104	=104	=104
8D'\L	.	8B-'/L	.	8f'/L	.	16a-'/LL]	.
.	.	.	.	.	.	(16f/	.
8F'\J	.	8B-'/J	.	8a-'/J	.	16a-/	.
.	.	.	.	.	.	16dd/JJ)	.
8r	.	8r	.	8r	.	[4ff\	.
8D'\	.	8B-'/	.	8f'/	.	.	.
=105	=105	=105	=105	=105	=105	=105	=105
8BB-'\L	.	8B-'/L	.	8d'/L	.	16ff'/LL]	.
.	.	.	.	.	.	(16B-/	.
8D'\J	.	8B-'/J	.	8f'/J	.	16d/	.
.	.	.	.	.	.	16f/JJ)	.
8r	.	8r	.	8r	.	[4b-\	.
8D'\	.	8B-'/	.	8f'/	.	.	.
=106	=106	=106	=106	=106	=106	=106	=106
8E-'\L	.	8B-'/L	.	8g'/L	.	16b-'\LL]	.
.	.	.	.	.	.	(16g\	.
8G'\J	.	8B-'/J	.	8b-'/J	.	16b-\	.
.	.	.	.	.	.	16ee-\JJ)	.
8r	.	8r	.	8r	.	[4gg\	.
8E-'\	.	8G'/	.	8g'/	.	.	.
=107	=107	=107	=107	=107	=107	=107	=107
8A-'\L	.	8c'/L	.	8cc'/L	.	16gg\LL]	.
.	.	.	.	.	.	(16cc\	.
8AA-'\J	.	8C'/J	.	8c'/J	.	16ee-\	.
.	.	.	.	.	.	16gg\JJ	.
8r	.	8r	.	8r	.	16ccc\LL	.
.	.	.	.	.	.	16ddd\	.
8AA-'/	.	8c'/	.	8cc'\	.	16eee-\	.
.	.	.	.	.	.	16fff\JJ)	.
=108	=108	=108	=108	=108	=108	=108	=108
8GG'/	.	8G'/	.	8bn'\	.	8ggg\L	.
8r	.	8r	.	8r	.	8G/J	.
=:|!|:	=:|!|:	=:|!|:	=:|!|:	=:|!|:	=:|!|:	=:|!|:	=:|!|:
*>M	*>M	*>M	*>M	*>M	*>M	*>M	*>M
*MM144	*MM144	*MM144	*MM144	*MM144	*MM144	*MM144	*MM144
8r	.	8r	.	8r	.	[4gg\	.
8B-'\	.	8d-'\	.	8g'/ 8b-'/	.	.	.
=109	=109	=109	=109	=109	=109	=109	=109
8c'\L	.	8c'\L	.	8g'/ 8b-'/L	.	16gg\LL]	.
.	.	.	.	.	.	(16g\	.
8C'\J	.	8c'\J	.	8g'/ 8b-'/J	.	16b-\	.
.	.	.	.	.	.	16een\JJ)	.
8r	.	8r	.	8r	.	[4ff\	.
8F\	.	8f\	.	8c/ 8a-/	.	.	.
=110	=110	=110	=110	=110	=110	=110	=110
(8B-\L	.	8f\L	.	8B-/ 8a-/L	.	16ff\LL]	.
.	.	.	.	.	.	(16f\	.
8BB-\J)	.	8f\J	.	8B-/ 8a-/J	.	16b-\	.
.	.	.	.	.	.	16dd\JJ	.
8r	.	8r	.	8r	.	8ee-\L)	.
8E-\	.	8B-/	.	8g/	.	[8gg\J	.
=111	=111	=111	=111	=111	=111	=111	=111
8E-/L	.	8c#/L	.	8b-/L	.	16gg\LL]	.
.	.	.	.	.	.	(16G/	.
8EE-/J	.	8c#/J	.	8g/J	.	16B-/	.
.	.	.	.	.	.	16G/JJ)	.
8r	.	8r	.	8r	.	(16d/LL	.
.	.	.	.	.	.	16f#/	.
8D/	.	8dn\	.	8f#/	.	16an/	.
.	.	.	.	.	.	16dd/JJ	.
=112	=112	=112	=112	=112	=112	=112	=112
8D/L	.	8d/L	.	8dd/L	.	16ff#\LL	.
.	.	.	.	.	.	16aan\	.
8DD/J	.	8D/J	.	8d/J	.	16ccc#\	.
.	.	.	.	.	.	16ddd\JJ)	.
8r	.	8r	.	8r	.	[4dd\	.
8B-\	.	8F/ 8A-/	.	8B-/ 8a-/	.	.	.
=113	=113	=113	=113	=113	=113	=113	=113
8B-\L	.	8F/ 8A-/L	.	8B-/ 8a-/L	.	16dd/LL]	.
.	.	.	.	.	.	(16B-/	.
8BB-\J	.	8F/ 8A-/J	.	8B-/ 8a-/J	.	16fn/	.
.	.	.	.	.	.	16b-/JJ	.
8r	.	8r	.	8r	.	[4dd\)	.
8B-\	.	8F/ 8A-/	.	8B-/ 8a-/	.	.	.
=114	=114	=114	=114	=114	=114	=114	=114
8B-\L	.	8F/ 8A-/L	.	8B-/ 8a-/L	.	16dd/LL]	.
.	.	.	.	.	.	(16d/	.
8BB-\J	.	8F/ 8A-/J	.	8B-/ 8a-/J	.	16f/	.
.	.	.	.	.	.	16b-/JJ	.
8r	.	8r	.	8r	.	[4ffn\)	.
8B-\	.	8F/ 8A-/	.	8B-/ 8a-/	.	.	.
=115	=115	=115	=115	=115	=115	=115	=115
8B-\L	.	8F/ 8A-/L	.	8B-/ 8a-/L	.	16ff/LL]	.
.	.	.	.	.	.	(16d/	.
8BB-\J	.	8F/ 8A-/J	.	8B-/ 8a-/J	.	16f/	.
.	.	.	.	.	.	16b-/JJ	.
8r	.	8r	.	8r	.	[4ff\)	.
8D/	.	8F/ 8A-/	.	8f/ 8b-/	.	.	.
=116	=116	=116	=116	=116	=116	=116	=116
8D/L	.	8F/ 8A-/L	.	8f/ 8b-/L	.	16ff\LL]	.
.	.	.	.	.	.	(16f\	.
8DD/J	.	8F/ 8A-/J	.	8f/ 8b-/J	.	16b-\	.
.	.	.	.	.	.	16dd\JJ	.
8r	.	8r	.	8r	.	8aa-\L)	.
8D\	.	8F/ 8A-/	.	8f/ 8b-/	.	[8bb-\J	.
=117	=117	=117	=117	=117	=117	=117	=117
8E-/L	.	8E-/ 8G/L	.	8g\ 8b-\L	.	16bb-\LL]	.
.	.	.	.	.	.	(16G/	.
8EE-/J	.	8E-/ 8G/J	.	8g\ 8b-\J	.	16B-/	.
.	.	.	.	.	.	16e-/JJ	.
8r	.	8r	.	8r	.	[4g/)	.
8E-\	.	8g\	.	8b-\	.	.	.
=118	=118	=118	=118	=118	=118	=118	=118
8A-\L	.	8e-\L	.	8cc\L	.	16g/LL]	.
.	.	.	.	.	.	(16c/	.
8AA-\J	.	8c\J	.	8cc\J	.	16f/	.
.	.	.	.	.	.	16a-/JJ	.
8r	.	8r	.	8r	.	4cc\)	.
8F\	.	8f\	.	8c/ 8a-/	.	.	.
=119	=119	=119	=119	=119	=119	=119	=119
8B-\L	.	8f\L	.	8B-/ 8a-/L	.	16cc\LL	.
.	.	.	.	.	.	(16b-\	.
8BB-\J	.	8f\J	.	8B-/ 8a-/J	.	16dd\	.
.	.	.	.	.	.	16ff\JJ	.
8r	.	8r	.	8r	.	16aa-\LL	.
.	.	.	.	.	.	16bb-\	.
8BB-/	.	8f\	.	8B-/ 8a-/	.	16ccc\	.
.	.	.	.	.	.	16ddd\JJ)	.
=120	=120	=120	=120	=120	=120	=120	=120
8EE-/	.	8e-\	.	8B-/ 8g/	.	8eee-\L	.
8r	.	8r	.	8r	.	8e-/J	p
=:|!|:	=:|!|:	=:|!|:	=:|!|:	=:|!|:	=:|!|:	=:|!|:	=:|!|:
*>N	*>N	*>N	*>N	*>N	*>N	*>N	*>N
12EE-/L	pp	4r	.	4r	.	4r	.
12EE-/	.	.	.	.	.	.	.
12EE-/J	.	.	.	.	.	.	.
=121	=121	=121	=121	=121	=121	=121	=121
12EE-/L	.	2r	.	2r	.	2r	.
12EE-/	.	.	.	.	.	.	.
12EE-/J	.	.	.	.	.	.	.
12EE-/L	.	.	.	.	.	.	.
12EE-/	.	.	.	.	.	.	.
12EE-/J	.	.	.	.	.	.	.
=122	=122	=122	=122	=122	=122	=122	=122
12EE-/L	.	4r	.	4r	.	4r	.
12EE-/	.	.	.	.	.	.	.
12EE-/J	.	.	.	.	.	.	.
12EE-/L	.	(8e-\L	pp	(8g/L	pp	(8b-\L	pp
12EE-/	.	.	.	.	.	.	.
.	.	8d\J	.	8a-/J	.	8cc\J	.
12EE-/J	.	.	.	.	.	.	.
=123	=123	=123	=123	=123	=123	=123	=123
12EE-/L	.	8e-\L	.	8g/L	.	8b-\L	.
12EE-/	.	.	.	.	.	.	.
.	.	8d\	.	8a-/	.	8cc\	.
12EE-/J	.	.	.	.	.	.	.
12EE-/L	.	8e-\	.	8g/	.	8b-\	.
12EE-/	.	.	.	.	.	.	.
.	.	8G\J	.	8b-/J)	.	8ee-\J	.
12EE-/J	.	.	.	.	.	.	.
=124	=124	=124	=124	=124	=124	=124	=124
12EE-/L	.	8G/L	.	(8b-/L	.	8dd\L	.
12EE-/	.	.	.	.	.	.	.
.	.	8A-/)	.	8a-/	.	8cc\	.
12EE-/J	.	.	.	.	.	.	.
12EE-/L	.	(8A-/	.	8a-/	.	8cc\	.
12EE-/	.	.	.	.	.	.	.
.	.	8B-/J	.	8g/J	.	8b-\J)	.
12EE-/J	.	.	.	.	.	.	.
=125	=125	=125	=125	=125	=125	=125	=125
12EE-/L	.	8c/L	.	8g/L	.	(8b-/L	.
12EE-/	.	.	.	.	.	.	.
.	.	8d/	.	8f/	.	8a-/	.
12EE-/J	.	.	.	.	.	.	.
12EE-/L	.	8F/	.	8d/	.	8a-/	.
12EE-/	.	.	.	.	.	.	.
.	.	8G/J	.	8e-/J)	.	8g/J)	.
12EE-/J	.	.	.	.	.	.	.
=126	=126	=126	=126	=126	=126	=126	=126
12EE-/L	.	8G/L	.	(8e-/L	.	(8g/L	.
[12EE-/	.	.	.	.	.	.	.
.	.	8A-/	.	8d/	.	8f/	.
12EE-/J]	.	.	.	.	.	.	.
12EE-/L	.	8A-/	.	8d/	.	8f/	.
12EE-/	.	.	.	.	.	.	.
.	.	8G/J)	.	8e-/J	.	8g/J)	.
12EE-/J	.	.	.	.	.	.	.
=127	=127	=127	=127	=127	=127	=127	=127
12EE-/L	.	(8A-/L	.	8d/L	.	(8f/L	.
12EE-/	.	.	.	.	.	.	.
.	.	8G/	.	8e-/	.	8g/	.
12EE-/J	.	.	.	.	.	.	.
12EE-/L	.	8G/	.	8e-/	.	8g/	.
12EE-/	.	.	.	.	.	.	.
.	.	8F/J	.	8d/J	.	8a-/J)	.
12EE-/J	.	.	.	.	.	.	.
=128	=128	=128	=128	=128	=128	=128	=128
12EE-/L	.	8G/L	.	8e-/L	.	(8g/L	.
12EE-/	.	.	.	.	.	.	.
.	.	8F/	.	8f/	.	8a-/	.
12EE-/J	.	.	.	.	.	.	.
12EE-/L	.	8E-/	.	8g/	.	8b-/	.
12EE-/	.	.	.	.	.	.	.
.	.	8G/J)	.	8e-/J)	.	8bn/J)	.
12EE-/J	.	.	.	.	.	.	.
=129	=129	=129	=129	=129	=129	=129	=129
12EE-/L	.	(8A-\L	.	(8e-/L	.	(8cc\L	.
12EE-/	.	.	.	.	.	.	.
.	.	8f\	.	8a-/	.	8dd\	.
12EE-/J	.	.	.	.	.	.	.
12EE-/L	.	8g\	.	8b-/	.	8ee-\	.
12EE-/	.	.	.	.	.	.	.
.	.	8d\J	.	8b-/J	.	8ff\J	.
12EE-/J	.	.	.	.	.	.	.
=130	=130	=130	=130	=130	=130	=130	=130
*>N1	*>N1	*>N1	*>N1	*>N1	*>N1	*>N1	*>N1
12EE-/L	.	4e-\)	.	4b-/)	.	4gg\)	.
12EE-/	.	.	.	.	.	.	.
12EE-/J	.	.	.	.	.	.	.
=:|!|:	=:|!|:	=:|!|:	=:|!|:	=:|!|:	=:|!|:	=:|!|:	=:|!|:
*>O	*>O	*>O	*>O	*>O	*>O	*>O	*>O
12DD-/L	.	(4B-/	.	8g/L	.	(8gg\L	.
12DD-/	.	.	.	.	.	.	.
.	.	.	.	8f/J	.	8ff\J	.
12DD-/J	.	.	.	.	.	.	.
=131	=131	=131	=131	=131	=131	=131	=131
12DD-/L	.	2A-/)	pp	8f/L	pp	8ff\L	pp
12DD-/	pp	.	.	.	.	.	.
.	.	.	.	8en/	.	8een\	.
12DD-/J	.	.	.	.	.	.	.
12DD-/L	.	.	.	8e/	.	8ee\	.
12DD-/	.	.	.	.	.	.	.
.	.	.	.	8f/J	.	8ff\J)	.
12DD-/J	.	.	.	.	.	.	.
=132	=132	=132	=132	=132	=132	=132	=132
12DD-/L	.	(8G/L	.	8e-/L	.	(8ee-\L	.
12DD-/	.	.	.	.	.	.	.
.	.	8F/	.	8d-/	.	8dd-\	.
12DD-/J	.	.	.	.	.	.	.
12DD-/L	.	8F/	.	8d-/	.	8dd-\	.
12DD-/	.	.	.	.	.	.	.
.	.	8G/J)	.	8e-/J	.	8ee-\J)	.
12DD-/J	.	.	.	.	.	.	.
=133	=133	=133	=133	=133	=133	=133	=133
12DD-/L	.	(8E-/L	.	(8c/L	.	(8cc\L	.
12DD-/	.	.	.	.	.	.	.
.	.	8G-/J)	.	8e-/J)	.	8ee-\J)	.
12DD-/J	.	.	.	.	.	.	.
12DD-/L	.	[4F/	.	[4d-/	.	[4dd-\	.
12DD-/	.	.	.	.	.	.	.
12DD-/J	.	.	.	.	.	.	.
=134	=134	=134	=134	=134	=134	=134	=134
12DD-/L	.	4F/]	.	4d-/]	.	4dd-\]	.
12DD-/	.	.	.	.	.	.	.
12DD-/J	.	.	.	.	.	.	.
12DD-/L	.	(8F/L	.	(8d-/L	.	(8dd-\L	.
12DD-/	.	.	.	.	.	.	.
.	.	8A-/J)	.	8c/J)	.	8cc\J)	.
12DD-/J	.	.	.	.	.	.	.
=135	=135	=135	=135	=135	=135	=135	=135
12DD-/L	.	(8A-/L	.	(8c/L	.	(8cc\L	.
12DD-/	.	.	.	.	.	.	.
.	.	8G-/	.	8B-/	.	8b-\	.
12DD-/J	.	.	.	.	.	.	.
12DD-/L	.	8F/	.	8A-/	.	8dd-\	.
12DD-/	.	.	.	.	.	.	.
.	.	8E-/J)	.	8g-/J)	.	8ee-\J)	.
12DD-/J	.	.	.	.	.	.	.
=136	=136	=136	=136	=136	=136	=136	=136
12DD-/L	.	(8E-/L	.	(8g-/L	.	(8ee-\L	.
12DD-/	.	.	.	.	.	.	.
.	.	8D-/)	.	8f/)	.	8ff\)	.
12DD-/J	.	.	.	.	.	.	.
12DD-/L	.	(8A-/	.	(8f/	.	(8ff\	.
12DD-/	.	.	.	.	.	.	.
.	.	8G-/J)	.	8e-/J)	.	8ee-\J)	.
12DD-/J	.	.	.	.	.	.	.
=137	=137	=137	=137	=137	=137	=137	=137
12DD-/L	.	(8G-/L	.	(8e-/L	.	(8ee-\L	.
12DD-/	.	.	.	.	.	.	.
.	.	8F/	.	8d-/	.	8dd-\	.
12DD-/J	.	.	.	.	.	.	.
12DD-/L	.	8d-/	.	8f/	.	8ff\	.
12DD-/	.	.	.	.	.	.	.
.	.	8e-/J	.	8g-/J	.	8gg-\J	.
12DD-/J	.	.	.	.	.	.	.
=138	=138	=138	=138	=138	=138	=138	=138
12DD-/L	.	8f/L	.	8a-/L	.	8aa-\L	.
12DDn/	.	.	.	.	.	.	.
.	.	8A-/	.	8f/	.	8b-\)	.
12DD/J	.	.	.	.	.	.	.
12EE-/L	.	8Gn/	.	8e-/	.	(8b-\	.
12EE-/	.	.	.	.	.	.	.
.	.	8A-/J	.	8dn/J	.	8cc\J	.
12EE-/J	.	.	.	.	.	.	.
=139	=139	=139	=139	=139	=139	=139	=139
12EE-/L	.	8G/L	.	8e-/L	.	8b-\L	.
12EE-/	.	.	.	.	.	.	.
.	.	8A-/	.	8d/	.	8cc\	.
12EE-/J	.	.	.	.	.	.	.
12EE-/L	.	8G/	.	8e-/	.	8b-\	.
12EE-/	.	.	.	.	.	.	.
.	.	8g/J)	.	8b-/J)	.	8ee-\J	.
12EE-/J	.	.	.	.	.	.	.
=140	=140	=140	=140	=140	=140	=140	=140
12EE-/L	.	8g\L	.	8b-/L	.	8ddn\L	.
12EE-/	.	.	.	.	.	.	.
.	.	8a-\	.	(8a-/	.	8cc\)	.
12EE-/J	.	.	.	.	.	.	.
12EE-/L	.	8d\	.	8f/	.	(8cc\	.
12EE-/	.	.	.	.	.	.	.
.	.	8e-\J	.	8g/J	.	8b-\J	.
12EE-/J	.	.	.	.	.	.	.
=141	=141	=141	=141	=141	=141	=141	=141
12EE-/L	.	8F/L	.	8d/L	.	8a-\L	.
12EE-/	.	.	.	.	.	.	.
.	.	8G/	.	8d-/	.	8b-\	.
12EE-/J	.	.	.	.	.	.	.
12EE-/L	.	8A-/	.	8c/	.	8cc\	.
12EE-/	.	.	.	.	.	.	.
.	.	8B-/J	.	8A-/J	.	8dd\J	.
12EE-/J	.	.	.	.	.	.	.
=142	=142	=142	=142	=142	=142	=142	=142
12EE-/L	.	4B-/	.	4G/)	.	4ee-\)	.
12EE-/	.	.	.	.	.	.	.
12EE-/J	.	.	.	.	.	.	.
=143:|!	=143:|!	=143:|!	=143:|!	=143:|!	=143:|!	=143:|!	=143:|!
4EE-/	.	4B-/	.	4G/	.	12ee-\L	<
.	.	.	.	.	.	12b-\	.
.	.	.	.	.	.	12b-\J	.
4r	.	(8B-/L	.	4r	.	12b-\L	.
.	.	.	.	.	.	12b-\	.
.	.	8c/J	.	.	.	.	.
.	.	.	.	.	.	12b-\J	.
=144	=144	=144	=144	=144	=144	=144	=144
2G\	<	8B-/L	<	2r	.	12b-\L	.
.	.	.	.	.	.	12b-\	.
.	.	8c/	.	.	.	.	.
.	.	.	.	.	.	12b-\J	.
.	.	8B-/	.	.	.	12b-\L	.
.	.	.	.	.	.	12b-\	.
.	.	8e-/J	.	.	.	.	.
.	.	.	.	.	.	12b-\J	.
=145	=145	=145	=145	=145	=145	=145	=145
2A-\	.	8d\L	.	2r	.	12b-\L	.
.	.	.	.	.	.	12b-\	.
.	.	8c\	.	.	.	.	.
.	.	.	.	.	.	12b-\J	.
.	.	8d\	.	.	.	12b-\L	.
.	.	.	.	.	.	12b-\	.
.	.	8c\J	.	.	.	.	.
.	.	.	.	.	.	12b-\J	.
=146	=146	=146	=146	=146	=146	=146	=146
2F\	.	8B-/L	.	2r	.	12b-\L	.
.	.	.	.	.	.	12b-\	.
.	.	8A-/	.	.	.	.	.
.	.	.	.	.	.	12b-\J	.
.	.	8B-/	.	.	.	12b-\L	.
.	.	.	.	.	.	12b-\	.
.	.	8A-/J	.	.	.	.	.
.	.	.	.	.	.	12b-\J	.
=147	=147	=147	=147	=147	=147	=147	=147
(4D/	>	8G/L	>	4r	.	12b-\L	>
.	.	.	.	.	.	12b-\	.
.	.	8F/J)	.	.	.	.	.
.	.	.	.	.	.	12b-\J	.
4AA-/	.	12B-/L	.	(8b-\L	.	(8bb-\L	<
.	.	12B-/	.	.	.	.	.
.	.	.	.	8cc\J	<	8ccc\J	.
.	.	12B-/J	.	.	.	.	.
=148	=148	=148	=148	=148	=148	=148	=148
2GG/)	<	12B-/L	.	8b-\L	.	8bb-\L	.
.	.	12B-/	.	.	.	.	.
.	.	.	.	8cc\	.	8ccc\	.
.	.	12B-/J	.	.	.	.	.
.	.	12B-/L	.	8b-\	.	8bb-\	.
.	.	12B-/	.	.	.	.	.
.	.	.	.	8ee-\J	.	8eee-\J	.
.	.	12B-/J	.	.	.	.	.
=149	=149	=149	=149	=149	=149	=149	=149
2AA-/	.	12B-/L	.	8dd\L	.	8ddd\L	.
.	.	12B-/	.	.	.	.	.
.	.	.	.	8cc\	.	8ccc\	.
.	.	12B-/J	.	.	.	.	.
.	.	12B-/L	.	8dd\	.	8ddd\	.
.	.	12B-/	.	.	.	.	.
.	.	.	.	8cc\J	.	8ccc\J	.
.	.	12B-/J	.	.	.	.	.
=150	=150	=150	=150	=150	=150	=150	=150
2FF/	.	12B-/L	.	8b-/L	.	8bb-\L	.
.	.	12B-/	.	.	.	.	.
.	.	.	.	8a-/	.	8aa-\	.
.	.	12B-/J	.	.	.	.	.
.	.	12B-/L	.	8b-/	.	8bb-\	.
.	.	12B-/	.	.	.	.	.
.	.	.	.	8a-/J	.	8aa-\J	.
.	.	12B-/J	.	.	.	.	.
=151	=151	=151	=151	=151	=151	=151	=151
4DD/	>	12B-/L	>	8g/L	>	8gg\L	>
.	.	12B-/	.	.	.	.	.
.	.	.	.	8f/J)	.	8ff\J)	.
.	.	12B-/J	.	.	.	.	.
(8BB-/L	.	12e-\L	.	12B-/ 12g/L	.	[4gg\	.
.	.	12e-\	.	12B-/ 12g/	.	.	.
8C/J	.	.	.	.	.	.	.
.	.	12e-\J	.	12B-/ 12g/J	.	.	.
=152	=152	=152	=152	=152	=152	=152	=152
8BB-/L	.	12e-\L	.	12B-/ 12g/L	.	(12gg\L]	.
.	.	12e-\	.	12B-/ 12g/	.	12ff\	.
8C/	.	.	.	.	.	.	.
.	.	12e-\J	.	12B-/ 12g/J	.	12ee-\J	.
8BB-/	.	12e-\L	.	12B-/ 12g/L	.	12dd\L	.
.	.	12e-\	.	12B-/ 12g/	.	12cc\	.
8E-/J	.	.	.	.	.	.	.
.	.	12e-\J	.	12B-/ 12g/J	.	12b-\J)	.
=153	=153	=153	=153	=153	=153	=153	=153
8D/L	.	12f\L	.	12B-/ 12a-/L	.	4b-\	.
.	.	12f\	.	12B-/ 12a-/	.	.	.
8C/	.	.	.	.	.	.	.
.	.	12f\J	.	12B-/ 12a-/J	.	.	.
8D/	.	12f\L	.	12B-/ 12a-/L	.	(16b-\LL	.
.	.	.	.	.	.	16an\	.
.	.	12f\	.	12B-/ 12a-/	.	.	.
8C/J	.	.	.	.	.	16b-\	.
.	.	12f\J	.	12B-/ 12a-/J	.	.	.
.	.	.	.	.	.	16cc\JJ	.
=154	=154	=154	=154	=154	=154	=154	=154
8BB-/L	.	12d\L	.	12B-/ 12f/L	.	4dd\)	.
.	.	12d\	.	12B-/ 12f/	.	.	.
8AA-/	.	.	.	.	.	.	.
.	.	12d\J	.	12B-/ 12f/J	.	.	.
8BB-/	.	12d\L	.	12B-/ 12f/L	.	(16ee-\LL	.
.	.	.	.	.	.	16dd\	.
.	.	12d\	.	12B-/ 12f/	.	.	.
8AA-/J	.	.	.	.	.	16ee-\	.
.	.	12d\J	.	12B-/ 12f/J	.	.	.
.	.	.	.	.	.	16ff\JJ	.
=155	=155	=155	=155	=155	=155	=155	=155
8GG/L	.	12e-\L	.	4B-/ 4g/	.	16gg\LL	.
.	.	.	.	.	.	16ff\	.
.	.	12e-\	.	.	.	.	.
8FF/J)	.	.	.	.	.	16gg\	.
.	.	12f\J	.	.	.	.	.
.	.	.	.	.	.	16aa-\JJ	.
[4EE-/	f	12G/L	f	12b-/L	f	8bb-\L	f
.	.	12G/	.	12b-/	.	.	.
.	.	.	.	.	.	8ddd-\J	.
.	.	12G/J	.	12b-/J	.	.	.
=156	=156	=156	=156	=156	=156	=156	=156
4EE-/]	.	12G/L	.	12b-/L	.	8ccc\L	.
.	.	12c/	.	12b-/	.	.	.
.	.	.	.	.	.	8bb-\	.
.	.	12c/J	.	12b-/J	.	.	.
4FF/	.	12c/L	.	12a-/L	.	8aa-\	.
.	.	12c/	.	12a-/	.	.	.
.	.	.	.	.	.	8ff\J	.
.	.	12c/J	.	12a-/J	.	.	.
=157	=157	=157	=157	=157	=157	=157	=157
4GG/	>	12B-/L	>	12g/L	>	8een\L	>
.	.	12B-/	.	[12g/	.	.	.
.	.	.	.	.	.	8gg\	.
.	.	12B-/J	.	12g/J]	.	.	.
4AA-/	p	12c/L	p	12f/L	p	8ff\	p
.	.	12c/	.	12f/	.	.	.
.	.	.	.	.	.	8ccc\J)	.
.	.	12c/J	.	12a-/J	.	.	.
=158	=158	=158	=158	=158	=158	=158	=158
(4BB-/	.	12B-/L	.	12g/L	.	(4ee-\	.
.	.	12B-/	.	12g/	.	.	.
.	.	12B-/J	.	12g/J	.	.	.
(8B-\L)	.	12B-/L	.	12f/L	.	8dd\L	.
.	.	12B-/	.	12f/	.	.	.
8A-\J	.	.	.	.	.	8bb-\J)	.
.	.	12B-/J	.	12f/J	.	.	.
=159	=159	=159	=159	=159	=159	=159	=159
8G\L	.	12B-/L	.	12g/L	.	(8bb-\L	.
.	.	12E-/	.	12g/	.	.	.
8F\J	.	.	.	.	.	8aa-\	.
.	.	12F/J	.	12a-/J	.	.	.
[4En\)	f	12G/L	f	12b-/L	f	8gg\	f
.	.	12G/	.	12b-/	.	.	.
.	.	.	.	.	.	8ddd-\J	.
.	.	12G/J	.	12b-/J	.	.	.
=160	=160	=160	=160	=160	=160	=160	=160
4E\]	.	12G/L	.	12b-/L	.	8ccc\L	.
.	.	12c/	.	12b-/	.	.	.
.	.	.	.	.	.	8bb-\	.
.	.	12c/J	.	12b-/J	.	.	.
(4F\	.	12c/L	.	12a-/L	.	8aa-\	.
.	.	12c/	.	12a-/	.	.	.
.	.	.	.	.	.	8ff\J)	.
.	.	12c/J	.	12a-/J	.	.	.
=161	=161	=161	=161	=161	=161	=161	=161
4G\	>	12B-/L	>	12g/L	>	(12een\L	>
.	.	[12B-/	.	12g/	.	12gg\	.
.	.	12B-/J]	.	12g/J	.	12cc\J	.
4A-\	p	12c/L	p	12f/L	p	12ff\L	p
.	.	12c/	.	12f/	.	12aa-\	.
.	.	12A-/J	.	12f/J	.	12ccc\J)	.
=162	=162	=162	=162	=162	=162	=162	=162
4B-\	.	(12G/L	.	(12e-/L	.	12ee-\L	.
.	.	12B-/	.	12g/	.	12gg\	.
.	.	12G/J)	.	12e-/J)	.	12bb-\J	.
4BB-/)	.	12F/ 12A-/L	.	12B-/ 12d/L	.	4bb-\	.
.	.	12F/ 12A-/	.	12B-/ 12d/	.	.	.
.	.	12F/ 12A-/J	.	12B-/ 12d/J	.	.	.
=163	=163	=163	=163	=163	=163	=163	=163
12E-\L	.	12G/L	.	12B-/ 12e-/L	.	4ee-\	.
12E-\	.	12G/	.	12B-/ 12e-/	.	.	.
12E-\J	.	12G/J	.	12B-/ 12e-/J	.	.	.
12E-\L	.	12G/L	.	12B-/ 12e-/L	.	4r	.
12E-\	.	12G/	.	12B-/ 12e-/	.	.	.
12E-\J	.	12G/J	.	12B-/ 12e-/J	.	.	.
=164	=164	=164	=164	=164	=164	=164	=164
12D-\L	.	12En/ 12G/L	.	12B-/ 12en/L	.	2r	.
12D-\	.	12E/ 12G/	.	12B-/ 12e/	.	.	.
12D-\J	>	12E/ 12G/J	>	12B-/ 12e/J	>	.	.
12D-\L	.	12E/ 12G/L	.	12B-/ 12e/L	.	.	.
12D-\	.	12E/ 12G/	.	12B-/ 12e/	.	.	.
12D-\J	.	12E/ 12G/J	.	12B-/ 12e/J	.	.	.
=165	=165	=165	=165	=165	=165	=165	=165
12E-\L	.	12G/L	.	12B-/ 12e-/L	.	(2ee-\	.
12E-\	.	12G/	.	12B-/ 12e-/	.	.	.
12E-\J	.	12G/J	.	12B-/ 12e-/J	.	.	.
12E-\L	.	12G/L	.	12B-/ 12e-/L	.	.	.
12E-\	.	12G/	.	12B-/ 12e-/	.	.	.
12E-\J	.	12G/J	.	12B-/ 12e-/J	.	.	.
=166	=166	=166	=166	=166	=166	=166	=166
12BB-/L	.	12F/ 12A-/L	.	12B-/ 12d/L	.	12dd\L	.
12BB-/	.	12F/ 12A-/	.	12B-/ 12d/	.	12aa-\	.
12BB-/J	.	12F/ 12A-/J	.	12B-/ 12d/J	.	12gg\J	.
12BB-/L	.	12F/ 12A-/L	.	12B-/ 12d/L	.	12ff\L	.
12BB-/	.	12F/ 12A-/	.	12B-/ 12d/	.	12ee-\	.
12BB-/J	.	12F/ 12A-/J	.	12B-/ 12d/J	.	12dd\J)	.
=167	=167	=167	=167	=167	=167	=167	=167
12EE-/L	.	12G/L	.	12B-/ 12e-/L	.	4ee-\	.
12E-/	.	12G/	.	12B-/ 12e-/	.	.	.
12E-/J	.	12G/J	.	12B-/ 12e-/J	.	.	.
12E-\L	.	12G/L	.	12B-/ 12e-/L	.	4r	.
12E-\	.	12G/	.	12B-/ 12e-/	.	.	.
12E-\J	.	12G/J	.	12B-/ 12e-/J	.	.	.
=168	=168	=168	=168	=168	=168	=168	=168
12D-\L	<	12En/ 12G/L	<	12B-/ 12en/L	<	2r	.
12D-\	.	12E/ 12G/	.	12B-/ 12e/	.	.	.
12D-\J	>	12E/ 12G/J	.	12B-/ 12e/J	.	.	.
12D-\L	.	12E/ 12G/L	>	12B-/ 12e/L	>	.	.
12D-\	.	12E/ 12G/	.	12B-/ 12e/	.	.	.
12D-\J	.	12E/ 12G/J	.	12B-/ 12e/J	.	.	.
=169	=169	=169	=169	=169	=169	=169	=169
12E-\L	.	12G/L	.	12B-/ 12e-/L	.	2ee-\	.
12E-\	.	12G/	.	12B-/ 12e-/	.	.	.
12E-\J	.	12G/J	.	12B-/ 12e-/J	.	.	.
12E-\L	.	12G/L	.	12B-/ 12e-/L	.	.	.
12E-\	.	12G/	.	12B-/ 12e-/	.	.	.
12E-\J	.	12G/J	.	12B-/ 12e-/J	.	.	.
=170	=170	=170	=170	=170	=170	=170	=170
4BB-/	.	4F/ 4A-/	.	4B-/ 4d/	.	(12dd\L	.
.	.	.	.	.	.	12aa-\	.
.	.	.	.	.	.	12gg\J	.
4r	.	8r	.	8r	.	8ff'\L)	.
.	.	(16B-\LL	pp	(16d/LL	pp	(16bb-\L	pp
.	.	16d\JJ	.	16f/JJ	.	16aa-\JJ	.
=171	=171	=171	=171	=171	=171	=171	=171
8r	.	8e-'\)	.	8g'/)	.	8gg'\L)	.
(16E-\LL	pp	8r	.	8r	.	(16bb-\L	.
16F\J	.	.	.	.	.	16aa-\JJ	.
8G'\J)	.	8r	.	8r	.	8gg'\L)	.
8r	.	(16e-\LL	.	(16g/LL	.	(16eee-\L	.
.	.	16g\JJ	.	16b-/JJ	.	16ddd\JJ	.
=172	=172	=172	=172	=172	=172	=172	=172
8r	.	8a-'\)	.	8cc'\)	.	8ccc'\L)	.
(16A-\LL	.	8r	.	8r	.	(16ccc\L	.
16B-\J	.	.	.	.	.	16bb-\JJ	.
8c'\J)	.	8r	.	8r	.	8aa-'\L)	.
8r	.	16f\LL	.	16a-\LL	.	(16ccc\L	.
.	.	16g\JJ	.	16b-\JJ	.	16bb-\JJ	.
=173	=173	=173	=173	=173	=173	=173	=173
8r	.	8a-'\	.	8cc'\	.	8aa-'\L)	.
(16F\LL	.	8r	.	8r	.	(16aa-\L	.
16G\J	.	.	.	.	.	16gg\JJ	.
8A-'\J)	.	8r	.	8r	.	8ff'\L)	.
8r	.	(16d\LL	.	(16f/LL	.	(16aa-\L	.
.	.	16e-\JJ	.	16g/JJ	.	16gg\JJ	.
=174	=174	=174	=174	=174	=174	=174	=174
8r	.	8f'\)	.	8a-'/)	.	8ff'\L)	.
(16D\LL	.	8r	.	8r	.	(16ff\L	.
16E-\J	.	.	.	.	.	16ee-\JJ	.
8F'\J)	.	8r	.	8r	.	8dd'\L)	.
8r	.	(16B-\LL	.	(16d/LL	.	(16ff\L	.
.	.	16c\JJ	.	16e-/JJ	.	16ee-\JJ	.
=175	=175	=175	=175	=175	=175	=175	=175
8r	.	8d'\)	.	8f'/)	.	8dd'\L)	.
(16B-\LL	.	8r	.	8r	.	(16ff\L	.
16c\J	.	.	.	.	.	16ee-\JJ	.
8d'\J)	.	8r	.	8r	.	8dd'\L)	.
8r	.	16e-\LL	.	16g/LL	.	(16bb-\L	.
.	.	16f\JJ	.	16a-/JJ	.	16aa-\JJ	.
=176	=176	=176	=176	=176	=176	=176	=176
8r	.	8g'\	.	8b-'/	.	8gg'\L)	.
(16e-\LL	.	8r	.	8r	.	(16bb-\L	.
16f\J	.	.	.	.	.	16aa-\JJ	.
8g'\J)	.	8r	.	8r	.	8gg'\L)	.
8r	.	(16f\LL	.	16a-/LL	.	(16eee-\L	.
.	.	16g\JJ	.	16b-/JJ	.	16ddd\JJ	.
=177	=177	=177	=177	=177	=177	=177	=177
8r	.	8a-'\L)	.	8cc'/L	.	8ccc\L)	.
(16F\LL	.	(16c\L	.	(16a-/L	.	(16aa-\L	.
16G\JJ)	.	16B-\JJ	.	16g/JJ	.	16gg\JJ	.
8A-'\L	.	8A-'\L)	.	8f'/L)	.	8ff'\L	.
8B-'\J	.	8f'\J	.	8a-'/J	.	16bb-\L	.
.	.	.	.	.	.	16dd\JJ)	.
=178	=178	=178	=178	=178	=178	=178	=178
12E-'\L	.	12G'/L	.	8g/	.	&(8ee-'\&)	.
12E-'\	.	12G'/	.	.	.	.	.
.	.	.	.	8r	.	8r	.
12G'\J	.	12B-'/J	.	.	.	.	.
12E-'\L	.	12G'/L	.	12g'/L	.	12b-'/L	.
12E-'\	.	12G'/	.	12g'/	.	12b-'/	.
12G'\J	.	12B-'/J	.	12e-'/J	.	12g'/J	.
=179	=179	=179	=179	=179	=179	=179	=179
12E-'\L	.	12G'/L	.	12g'/L	.	12b-'/L	.
12E-'\	.	12G'/	.	12g'/	.	12b-'/	.
12G'\J	.	12B-'/J	.	12e-'/J	.	12g'/J	.
12E-'\L	.	12G'/L	.	12b-/L	.	12ee-'\L	.
12E-'\	.	12G'/	.	12b-/	.	12ee-'\	.
12G'\J	.	12B-'/J	.	12g/J	.	12b-'\J	.
=180	=180	=180	=180	=180	=180	=180	=180
12A-\L	.	12c\L	.	12a-/L	.	12cc\L	.
12A-\	.	12c\	.	12a-/	.	12cc\	.
12c\J	.	12e-\J	.	12e-/J	.	12a-\J	.
12A-\L	.	12c\L	.	12a-/L	.	12cc\L	.
12A-\	.	12c\	.	12a-/	.	12cc\	.
12c\J	.	12e-\J	.	12e-/J	.	12a-\J	.
=181	=181	=181	=181	=181	=181	=181	=181
12F\L	.	12A-/L	.	12a-/L	.	12cc\L	.
12F\	.	12A-/	.	12a-/	.	12cc\	.
12A-\J	.	12c/J	.	12f/J	.	12a-\J	.
12F\L	.	12A-/L	.	12a-/L	.	12cc\L	.
12F\	.	12A-/	.	12a-/	.	12cc\	.
12A-\J	.	12c/J	.	12f/J	.	12a-\J	.
=182	=182	=182	=182	=182	=182	=182	=182
12D\L	.	12F/L	.	12a-/L	.	12b-\L	.
12D\	.	12F/	.	12a-/	.	12b-\	.
12F\J	.	12B-/J	.	12f/J	.	12a-\J	.
12D\L	.	12F/L	.	12a-/L	.	12b-\L	.
12D\	.	12F/	.	12a-/	.	12b-\	.
12F\J	.	12B-/J	.	12f/J	.	12a-\J	.
=183	=183	=183	=183	=183	=183	=183	=183
12BB-\L	.	12f\L	.	12a-/L	.	12dd\L	.
12BB-\	.	12f\	.	12a-/	.	12dd\	.
12B-\J	.	12a-\J	.	12d/J	.	12f\J	.
12BB-\L	.	12f\L	.	12a-/L	.	12dd\L	.
12BB-\	.	12f\	.	12a-/	.	12dd\	.
12B-\J	.	12a-\J	.	12d/J	.	12f\J	.
=184	=184	=184	=184	=184	=184	=184	=184
12E-\L	.	12B-\L	.	12g/L	.	12ee-\L	.
12E-\	.	12B-\	.	12g/	.	12ee-\	.
12B-\J	.	12g\J	.	12e-/J	.	12g\J	.
12E-\L	.	12B-\L	.	12ee-\L	.	12gg\L	.
12E-\	.	12B-\	.	12ee-\	.	12gg\	.
12B-\J	.	12g\J	.	12g\J	.	12ee-\J	.
=185	=185	=185	=185	=185	=185	=185	=185
12BB-\L	.	12B-\L	.	12ff\L	.	12aa-\L	.
12BB-\	.	12B-\	.	12ff\	.	12aa-\	.
12B-\J	.	12f\J	.	12dd\J	.	12ff\J	.
12BB-\L	.	12B-\L	.	12ff\L	.	12ddd\L	.
12BB-\	.	12B-\	.	12ff\	.	12ddd\	.
12B-\J	.	12b-\J	.	12dd\J	.	12ff\J	.
=186	=186	=186	=186	=186	=186	=186	=186
8E-\	f	8e-\	f	8gg\	f	8eee-\	f
8r	.	8r	.	8r	.	8r	.
16BB-/LL	.	16B-/LL	.	16b-\LL	.	16bb-\LL	.
16C/	.	16c/	.	16cc\	.	16ccc\	.
16BB-/	.	16B-/	.	16b-\	.	16bb-\	.
16AA-/JJ	.	16A-/JJ	.	16a-\JJ	.	16aa-\JJ	.
=187	=187	=187	=187	=187	=187	=187	=187
16GG/LL	.	16G\LL	.	16g\LL	.	16gg\LL	.
16BB-/	.	16B-\	.	16b-\	.	16bb-\	.
16C/	.	16c\	.	16cc\	.	16ccc\	.
16D/JJ	.	16d\JJ	.	16dd\JJ	.	16ddd\JJ	.
16E-\LL	.	16e-\LL	.	16ee-\LL	.	16eee-\LL	.
16F\	.	16f\	.	16ff\	.	16fff\	.
16E-\	.	16e-\	.	16ee-\	.	16eee-\	.
16D\JJ	.	16d\JJ	.	16dd\JJ	.	16ddd\JJ	.
=188	=188	=188	=188	=188	=188	=188	=188
16D/LL	.	16d\LL	.	16dd\LL	.	16ddd\LL	.
16C/	.	16c\	.	16cc\	.	16ccc\	.
16BBn/	.	16Bn\	.	16bn\	.	16bbn\	.
16C/JJ	.	16c\JJ	.	16cc\JJ	.	16ccc\JJ	.
16C/LL	.	16c\LL	.	16cc\LL	.	16ccc\LL	.
16D/	.	16d\	.	16dd\	.	16ddd\	.
16C/	.	16c\	.	16cc\	.	16ccc\	.
16BB-/JJ	.	16B-\JJ	.	16b-\JJ	.	16bb-\JJ	.
=189	=189	=189	=189	=189	=189	=189	=189
16BB-/LL	.	16B-/LL	.	16b-/LL	.	16bb-\LL	.
16AA-/	.	16A-/	.	16a-/	.	16aa-\	.
16GG/	.	16G/	.	16g/	.	16gg\	.
16AA-/JJ	.	16A-/JJ	.	16a-/JJ	.	16aa-\JJ	.
16AA-/LL	.	16A-/LL	.	16a-/LL	.	16aa-\LL	.
16BB-/	.	16B-/	.	16b-/	.	16bb-\	.
16AA-/	.	16A-/	.	16a-/	.	16aa-\	.
16GG/JJ	.	16G/JJ	.	16g/JJ	.	16gg\JJ	.
=190	=190	=190	=190	=190	=190	=190	=190
16GG/LL	.	16G/LL	.	16g/LL	.	16gg\LL	.
16FF/	.	16F/	.	16f/	.	16ff\	.
16EEn/	.	16En/	.	16en/	.	16een\	.
16FF/JJ	.	16F/JJ	.	16f/JJ	.	16ff\JJ	.
16AA-/LL	.	16A-/LL	.	16a-/LL	.	16aa-\LL	.
16BB-/	.	16B-/	.	16b-/	.	16bb-\	.
16AA-/	.	16A-/	.	16a-/	.	16aa-\	.
16GG/JJ	.	16G/JJ	.	16g/JJ	.	16gg\JJ	.
=191	=191	=191	=191	=191	=191	=191	=191
16GG/LL	.	16G/LL	.	16g/LL	.	16gg\LL	.
16FF/	.	16F/	.	16f/	.	16ff\	.
16EEn/	.	16En/	.	16en/	.	16een\	.
16FF/JJ	.	16F/JJ	.	16f/JJ	.	16ff\JJ	.
16BB-/LL	.	16B-/LL	.	16b-/LL	.	16bb-\LL	.
16C/	.	16c/	.	16cc/	.	16ccc\	.
16BB-/	.	16B-/	.	16b-/	.	16bb-\	.
16AA-/JJ	.	16A-/JJ	.	16a-/JJ	.	16aa-\JJ	.
=192	=192	=192	=192	=192	=192	=192	=192
16GG/LL	ff	16G/LL	ff	16g/LL	ff	16gg\LL	ff
16AA-/	.	16A-/	.	16a-/	.	16aa-\	.
16BB-/	.	16B-/	.	16b-/	.	16bb-\	.
16BBn/JJ	.	16Bn/JJ	.	16bn/JJ	.	16bbn\JJ	.
16CC/LL	.	16C/LL	.	16cc/LL	.	16ccc\LL	.
16DD/	.	16D/	.	16b-/	.	16bb-\	.
16EE-/	.	16E-/	.	16a-/	.	16aa-\	.
16EEn/JJ	.	16En/JJ	.	16g/JJ	.	16gg\JJ	.
=193	=193	=193	=193	=193	=193	=193	=193
16FF/LL	.	16F/LL	.	16f/LL	.	16ff\LL	.
16GG/	.	16G/	.	16e-/	.	16ee-\	.
16AA-/	.	16A-/	.	16d/	.	16dd\	.
16AAn/JJ	.	16An/JJ	.	16c/JJ	.	16cc\JJ	.
8BB-/L	.	8B-/L	.	16B-/LL	.	16b-/LL	.
.	.	.	.	16c/	.	16a-/	.
8BB-/J	.	8B-/J	.	16B-/	.	16g/	.
.	.	.	.	16A-/JJ	.	16f/JJ	.
=194	=194	=194	=194	=194	=194	=194	=194
8E-\	.	8E-/	.	8G/	.	8e-/	.
8r	.	8r	.	8r	.	8r	.
4r	.	4r	.	4r	.	4r	.
=195	=195	=195	=195	=195	=195	=195	=195
8BB-/	p	8F/	p	8d/	p	8b-/	p
8r	.	8r	.	8r	.	8r	.
4r	.	4r	.	4r	.	4r	.
=196	=196	=196	=196	=196	=196	=196	=196
8EE-/	.	8E-/ 8G/	.	8B-/ 8e-/	.	8g/	.
8r	.	8r	.	8r	.	8r	.
==	==	==	==	==	==	==	==
*-	*-	*-	*-	*-	*-	*-	*-
!!!ONB: Scanned with SharpEye into MusicXML by Don Anthony 2006///
!!!ONB: Converted to Humdrum by Craig Sapp 2006/07/24/
